packages/ui-icons/svg/Solid/inbox.svg

<svg viewBox="0 0 1920 1920" version="1.1" xmlns="http://www.w3.org/2000/svg">
    <path d="M1750.58824,1750.11765 L169.411765,1750.11765 C138.24,1750.11765 112.941176,1724.70588 112.941176,1693.64706 L112.941176,1398.08 L323.124706,1524.23529 L1596.87529,1524.23529 L1807.05882,1398.08 L1807.05882,1693.64706 C1807.05882,1724.70588 1781.76,1750.11765 1750.58824,1750.11765 Z M451.764706,1411.29412 L451.764706,168.941176 L1468.23529,168.941176 L1468.23529,1411.29412 L451.764706,1411.29412 Z M1750.58824,733.647059 L1581.17647,733.647059 L1581.17647,56 L338.823529,56 L338.823529,733.647059 L169.411765,733.647059 C76.0094118,733.647059 0,809.656471 0,903.058824 L0,1693.64706 C0,1787.04941 76.0094118,1863.05882 169.411765,1863.05882 L1750.58824,1863.05882 C1843.99059,1863.05882 1920,1787.04941 1920,1693.64706 L1920,903.058824 C1920,809.656471 1843.99059,733.647059 1750.58824,733.647059 Z M621.176471,488.903529 L1185.88235,488.903529 L1185.88235,375.962353 L621.176471,375.962353 L621.176471,488.903529 Z M621.176471,1166.55059 L1185.88235,1166.55059 L1185.88235,1053.60941 L621.176471,1053.60941 L621.176471,1166.55059 Z M621.176471,827.727059 L1298.82353,827.727059 L1298.82353,714.785882 L621.176471,714.785882 L621.176471,827.727059 Z" stroke="none" stroke-width="1" fill-rule="evenodd"/>
</svg>

<svg viewBox="0 0 1920 1920" version="1.1" xmlns="http://www.w3.org/2000/svg">
    <path d="M1750.588 1750.118H169.412c-31.172 0-56.47-25.412-56.47-56.47V1398.08l210.183 126.155h1273.75l210.184-126.155v295.567c0 31.059-25.299 56.47-56.47 56.47zM451.765 1411.294V168.941h1016.47v1242.353H451.765zm1298.823-677.647h-169.412V56H338.824v677.647H169.412C76.009 733.647 0 809.657 0 903.06v790.588c0 93.402 76.01 169.412 169.412 169.412h1581.176c93.403 0 169.412-76.01 169.412-169.412V903.06c0-93.403-76.01-169.412-169.412-169.412zM621.176 488.904h564.706V375.962H621.176v112.942zm0 677.647h564.706v-112.942H621.176v112.942zm0-338.824h677.648V714.786H621.176v112.941z" stroke="none" stroke-width="1" fill-rule="evenodd"/>
</svg>
